style-guide/assets/xd-icons-upvote.svg

<?xml version="1.0" encoding="UTF-8"?>
<svg width="24px" height="24px" viewBox="0 0 24 24" version="1.1" xmlns="http://www.w3.org/2000/svg" xmlns:xlink="http://www.w3.org/1999/xlink">
    <!-- Generator: Sketch 51.3 (57544) - http://www.bohemiancoding.com/sketch -->
    <title>upvote</title>
    <desc>Created with Sketch.</desc>
    <defs></defs>
    <g id="upvote" stroke="none" stroke-width="1" fill="none" fill-rule="evenodd">
        <path d="M12,2 C6.486,2 2,6.486 2,12 C2,17.514 6.486,22 12,22 C17.514,22 22,17.514 22,12 C22,6.486 17.514,2 12,2 M12,24 C5.383,24 0,18.617 0,12 C0,5.383 5.383,0 12,0 C18.617,0 24,5.383 24,12 C24,18.617 18.617,24 12,24 M13,8.414 L13,18 C13,18.553 12.552,19 12,19 C11.448,19 11,18.553 11,18 L11,8.414 L7.707,11.707 C7.512,11.902 7.256,12 7,12 C6.744,12 6.488,11.902 6.293,11.707 C5.902,11.316 5.902,10.684 6.293,10.293 L11.276612,5.30938803 C11.326577,5.25707338 11.3821612,5.21017891 11.442393,5.1696676 C11.476001,5.14711457 11.5106212,5.12675109 11.5460895,5.1086454 C11.5481086,5.10761574 11.5501315,5.10659273 11.5521584,5.10557641 C11.8333029,4.96447475 12.1666971,4.96447475 12.447846,5.10557575 C12.4498685,5.10659273 12.4518914,5.10761574 12.4539105,5.1086454 C12.4893788,5.12675109 12.523999,5.14711457 12.5575598,5.16973582 C12.6178388,5.21017891 12.673423,5.25707338 12.723388,5.30938803 L17.707,10.293 C18.098,10.684 18.098,11.316 17.707,11.707 C17.512,11.902 17.256,12 17,12 C16.744,12 16.488,11.902 16.293,11.707 L13,8.414 Z" id="icons/24px/Upvote" fill="#000000"></path>
    </g>
</svg>

<svg viewBox="0 0 24 24" xmlns="http://www.w3.org/2000/svg">
  <path d="M12 2C6.486 2 2 6.486 2 12s4.486 10 10 10 10-4.486 10-10S17.514 2 12 2m0 22C5.383 24 0 18.617 0 12S5.383 0 12 0s12 5.383 12 12-5.383 12-12 12m1-15.586V18a1 1 0 1 1-2 0V8.414l-3.293 3.293a.997.997 0 0 1-1.414 0 .999.999 0 0 1 0-1.414l4.984-4.984a1.005 1.005 0 0 1 .275-.203 1 1 0 0 1 1.171.203l4.984 4.984a.999.999 0 1 1-1.414 1.414L13 8.414z" fill="#000" fill-rule="evenodd"/>
</svg>
